!!!COM: Music21
!!!OTL: jig_Come-Now-Or-Stay
!!!OMV: jig_Come-Now-Or-Stay
**kern
*clefG2
*k[f#c#]
*D:
*M6/8
=1
16f#LL
16gJJ
=
8aL
8b
8aJ
4dd
8ff#
=
8aaL
8ff#
8bbJ
8aaL
8ff#
8ddJ
=
16eeLL
16ff#J
8gg
8eeJ
16ddLL
16eeJ
8ff#
8ddJ
=
8eeL
8cc#
8aJ
8aL
8f#
8gJ
=
8aL
8b
8aJ
4dd
8ff#
=
8aaL
8ff#
8bbJ
8aaL
8ff#
8ddJ
!!linebreak:original
=
16ff#LL
16ggJ
8aa
8ff#J
8ggL
8ee
8cc#J
=
8ddL
8ee
8ddJ
4dd
8ryy
=||
*M6/8
16f#LL
16gJJ
=
8aL
8b
8aJ
4dd
8ff#
=
8aaL
8ff#
8bbJ
8aaL
8ff#
8ddJ
=
16eeLL
16ff#J
8gg
8eeJ
16ddLL
16eeJ
8ff#
8ddJ
!!linebreak:original
=
8eeL
8cc#
8aJ
8aL
8f#
8gJ
=
8aL
8b
8aJ
4dd
8ff#
=
8aaL
8ff#
8bbJ
8aaL
8ff#
8ddJ
=
16ff#LL
16ggJ
8aa
8ff#J
8ggL
8ee
8cc#J
=
8ddL
8ee
8ddJ
4dd
8ryy
=||
8ff#
2ryy
8ryy
=
8eeL
8dd
8cc#J
8bL
8a
8gJ
!!linebreak:original
=
4f#
8d
8gL
8f#
8eJ
=
4a
8f#
8bL
8cc#
8ddJ
=
8cc#L
8ee
8eeJ
8eeL
8gg
8ff#J
=
8eeL
8dd
8cc#J
8bL
8a
8gJ
=
4f#
8d
8gL
8f#
8eJ
=
8aL
8b
8ddJ
16eeLL
16ff#J
8gg
8eeJ
=
8ff#L
8dd
8ddJ
4dd
8ryy
!!linebreak:original
=||
8ff#
2ryy
8ryy
=
8eeL
8dd
8cc#J
8bL
8a
8gJ
=
4f#
8d
8gL
8f#
8eJ
=
4a
8f#
8bL
8cc#
8ddJ
=
8cc#L
8ee
8eeJ
8eeL
8gg
8ff#J
=
8eeL
8dd
8cc#J
8bL
8a
8gJ
=
4f#
8d
8gL
8f#
8eJ
!!linebreak:original
=
8aL
8b
8ddJ
16eeLL
16ff#J
8gg
8eeJ
=
8ff#L
8dd
8ddJ
4dd
8ryy
=||
*-
